Yosa-Max/actions/22x22/document-save-as-template.svg

<?xml version="1.0" encoding="UTF-8"?>
<svg id="svg6" version="1.1" viewBox="0 0 22 22" xmlns="http://www.w3.org/2000/svg">
 <defs id="defs3051">
  <style id="current-color-scheme" type="text/css">.ColorScheme-Text {
        color:#4d4d4d;
      }</style>
  <style id="current-color-scheme-6" type="text/css">.ColorScheme-Text {
        color:#4d4d4d;
      }</style>
  <style id="current-color-scheme-5" type="text/css">.ColorScheme-Text {
        color:#4d4d4d;
      }</style>
  <style id="current-color-scheme-67" type="text/css">.ColorScheme-Text {
        color:#4d4d4d;
      }</style>
 </defs>
 <path id="path823" d="m3 3v16h9.007812v-2h-7.007812v-12h2.5722656v4.2851562h6.8554684v-4.2851562h0.251954l2.320312 2.3203125v2.6660156h2v-3.6835937h-0.007812l0.007812-0.0097656-3.292969-3.2929688-0.007812 0.0097656v-0.0097656h-12.699219z" style="fill:#4d4d4d"/>
 <path id="path819" d="m16.5078 12.000001-0.669922 1.882161-1.804687-0.856771 0.856771 1.804687-1.882162 0.669922 1.882162 0.669923-0.856771 1.804687 1.804687-0.856771 0.669922 1.882161 0.669923-1.882161 1.804687 0.856771-0.856771-1.804687 1.882161-0.669923-1.882161-0.669922 0.856771-1.804687-1.804687 0.856771z" style="color:#4d4d4d;fill:#4d4d4d"/>
</svg>

<?xml version="1.0" encoding="UTF-8" standalone="no"?>
<svg
   xmlns:dc="http://purl.org/dc/elements/1.1/"
   xmlns:cc="http://creativecommons.org/ns#"
   xmlns:rdf="http://www.w3.org/1999/02/22-rdf-syntax-ns#"
   xmlns:svg="http://www.w3.org/2000/svg"
   xmlns="http://www.w3.org/2000/svg"
   xmlns:sodipodi="http://sodipodi.sourceforge.net/DTD/sodipodi-0.dtd"
   xmlns:inkscape="http://www.inkscape.org/namespaces/inkscape"
   id="svg6"
   version="1.1"
   viewBox="0 0 22 22"
   sodipodi:docname="document-save-as-template.svg"
   inkscape:version="0.92.2 5c3e80d, 2017-08-06">
  <sodipodi:namedview
     pagecolor="#ffffff"
     bordercolor="#666666"
     borderopacity="1"
     objecttolerance="10"
     gridtolerance="10"
     guidetolerance="10"
     inkscape:pageopacity="0"
     inkscape:pageshadow="2"
     inkscape:window-width="640"
     inkscape:window-height="480"
     id="namedview11"
     showgrid="false"
     inkscape:object-paths="true"
     inkscape:zoom="21.454545"
     inkscape:cx="-5.9296393"
     inkscape:cy="2.3477535"
     inkscape:current-layer="svg6" />
  <metadata
     id="metadata10">
    <rdf:RDF>
      <cc:Work
         rdf:about="">
        <dc:format>image/svg+xml</dc:format>
        <dc:type
           rdf:resource="http://purl.org/dc/dcmitype/StillImage" />
        <dc:title />
      </cc:Work>
    </rdf:RDF>
  </metadata>
  <defs
     id="defs3051">
    <style
       id="current-color-scheme"
       type="text/css">
      .ColorScheme-Text {
        color:#4d4d4d;
      }
      </style>
    <style
       type="text/css"
       id="current-color-scheme-6">
      .ColorScheme-Text {
        color:#4d4d4d;
      }
      </style>
    <style
       type="text/css"
       id="current-color-scheme-5">
      .ColorScheme-Text {
        color:#4d4d4d;
      }
      </style>
    <style
       id="current-color-scheme-67"
       type="text/css">
      .ColorScheme-Text {
        color:#4d4d4d;
      }
      </style>
  </defs>
  <path
     style="fill:#4d4d4d;fill-opacity:1;stroke:none;stroke-width:1"
     d="M 3 3 L 3 3.0019531 L 3 4.0019531 L 3 19 L 4 19 L 12.007812 19 L 12.007812 17 L 8.9980469 17 L 8.7148438 17 L 6.7148438 17 L 5 17 L 5 5 L 7.5722656 5 L 7.5722656 8.4277344 L 7.5722656 9.2851562 L 14.427734 9.2851562 L 14.427734 8.4277344 L 14.427734 5 L 14.679688 5 L 17 7.3203125 L 17 7.5722656 L 17 9.9863281 L 19 9.9863281 L 19 7.0019531 L 19 6.3027344 L 18.992188 6.3027344 L 19 6.2929688 L 15.707031 3 L 15.699219 3.0097656 L 15.699219 3 L 15 3 L 3 3 z "
     id="path823" />
  <path
     style="color:#4d4d4d;fill:#4d4d4d;fill-opacity:1;stroke:none;stroke-width:1"
     d="m 16.5078,12.000001 -0.669922,1.882161 -1.804687,-0.856771 0.856771,1.804687 L 13.0078,15.5 14.889962,16.169923 14.033191,17.97461 15.837878,17.117839 16.5078,19 17.177723,17.117839 18.98241,17.97461 18.125639,16.169923 20.0078,15.5 18.125639,14.830078 18.98241,13.025391 17.177723,13.882162 Z"
     id="path819" />
</svg>
